X:0330
T:"Blow The Candle Out"     (song)      0330
C:Unattributed
C:moderate
B:O'Neill's Music Of Ireland (The 1850) Lyon & Healy, Chicago, 1903 edition
Z:FROM O'NEILL'S TO NOTEWORTHY, FROM NOTEWORTHY TO ABC, MIDI AND .TXT BY VINCE BRENNAN June 2003 (HTTP://WWW.SOSYOURMOM.COM)
Q:1/4=90
I:abc2nwc
M:2/4
L:1/16
K:G
"_VB"(dc)|(B3c) (B2G2)|(E3F) (G2A2)|(B2c2) ({B}A3G)|G6(GA)|(B3c) (B2A2)|(B2e2) (e2f2)|(g2a2) f3e|e4-e2 (GA)|
(B3c) (B2A2)|(B2e2) (e2f2)|g3b (agfg)|e2-~ef (g2e2)|(d3c) (BAGF)|(E3F) (G2A2)|(B3c) (BAGF)|G6|]
